src/assets/icons/days,fancy,monday.svg

<svg width="48" height="48" viewBox="0 0 48 48" fill="none" xmlns="http://www.w3.org/2000/svg">
<rect opacity="0.2" x="4" y="6" width="40" height="40" rx="4" fill="black"/>
<path d="M7.1772 21.5455V39H10.7567V27.5966H10.9016L15.4187 38.9148H17.8562L22.3732 27.6392H22.5181V39H26.0977V21.5455H21.5465L16.7397 33.2727H16.5352L11.7283 21.5455H7.1772ZM34.9847 39.2557C38.9563 39.2557 41.4279 36.5369 41.4279 32.5057C41.4279 28.4489 38.9563 25.7386 34.9847 25.7386C31.0131 25.7386 28.5415 28.4489 28.5415 32.5057C28.5415 36.5369 31.0131 39.2557 34.9847 39.2557ZM35.0018 36.4432C33.1694 36.4432 32.2319 34.7642 32.2319 32.4801C32.2319 30.196 33.1694 28.5085 35.0018 28.5085C36.8001 28.5085 37.7376 30.196 37.7376 32.4801C37.7376 34.7642 36.8001 36.4432 35.0018 36.4432Z" fill="black"/>
<g opacity="0.4">
<path d="M10 4C10 2.89543 10.8954 2 12 2C13.1046 2 14 2.89543 14 4V8C14 9.10457 13.1046 10 12 10C10.8954 10 10 9.10457 10 8V4Z" fill="black"/>
<path d="M34 4C34 2.89543 34.8954 2 36 2C37.1046 2 38 2.89543 38 4V8C38 9.10457 37.1046 10 36 10C34.8954 10 34 9.10457 34 8V4Z" fill="black"/>
</g>
<path fill-rule="evenodd" clip-rule="evenodd" d="M10 6.00869C7.52043 6.04456 6.11466 6.22849 5.17157 7.17157C4 8.34315 4 10.2288 4 14V16H44V14C44 10.2288 44 8.34315 42.8284 7.17157C41.8853 6.22849 40.4796 6.04456 38 6.00869V8C38 9.10457 37.1046 10 36 10C34.8954 10 34 9.10457 34 8V6H14V8C14 9.10457 13.1046 10 12 10C10.8954 10 10 9.10457 10 8V6.00869Z" fill="black"/>
</svg>

<svg xmlns="http://www.w3.org/2000/svg" width="48" height="48" fill="none" viewBox="0 0 48 48">
  <rect width="40" height="40" x="4" y="6" fill="#000" opacity=".2" rx="4"/>
  <path fill="#000" d="M7.177 21.546V39h3.58V27.597h.145l4.517 11.318h2.437l4.517-11.276h.145V39h3.58V21.546h-4.551L16.74 33.273h-.205l-4.807-11.728h-4.55zm27.808 17.71c3.971 0 6.443-2.72 6.443-6.75 0-4.057-2.472-6.767-6.443-6.767-3.972 0-6.444 2.71-6.444 6.767 0 4.03 2.472 6.75 6.444 6.75zm.017-2.813c-1.833 0-2.77-1.679-2.77-3.963s.937-3.971 2.77-3.971c1.798 0 2.736 1.687 2.736 3.971s-.938 3.963-2.736 3.963z"/>
  <g opacity=".4">
    <path fill="#000" d="M10 4a2 2 0 114 0v4a2 2 0 11-4 0V4zM34 4a2 2 0 114 0v4a2 2 0 11-4 0V4z"/>
  </g>
  <path fill="#000" fill-rule="evenodd" d="M10 6.009c-2.48.036-3.885.22-4.828 1.163C4 8.343 4 10.229 4 14v2h40v-2c0-3.771 0-5.657-1.172-6.828-.943-.944-2.348-1.127-4.828-1.163V8a2 2 0 11-4 0V6H14v2a2 2 0 11-4 0V6.009z" clip-rule="evenodd"/>
</svg>
